wp-content/themes/starter-theme/public/images/icons/menu.svg

<svg xmlns="http://www.w3.org/2000/svg" width="29" height="26" viewBox="0 0 29 26">
  <path fill-rule="evenodd" d="M1.55416417,5.25004709 C1.26249788,5.25004709 1.02291544,5.15629731 0.835415885,4.96879776 C0.647916332,4.78129821 0.554166555,4.54171576 0.554166555,4.25004947 L0.554166555,1.75005543 C0.554166555,1.45838914 0.647916332,1.2188067 0.835415885,1.03130715 C1.02291544,0.843807593 1.26249788,0.750057817 1.55416417,0.750057817 L27.5541022,0.750057817 C27.8457685,0.750057817 28.0853509,0.843807593 28.2728505,1.03130715 C28.46035,1.2188067 28.5540998,1.45838914 28.5540998,1.75005543 L28.5540998,4.25004947 C28.5540998,4.54171576 28.46035,4.78129821 28.2728505,4.96879776 C28.0853509,5.15629731 27.8457685,5.25004709 27.5541022,5.25004709 L1.55416417,5.25004709 Z M1.55416417,15.2500232 C1.26249788,15.2500232 1.02291544,15.1562735 0.835415885,14.9687739 C0.647916332,14.7812744 0.554166555,14.5416919 0.554166555,14.2500256 L0.554166555,11.7500316 C0.554166555,11.4583653 0.647916332,11.2187829 0.835415885,11.0312833 C1.02291544,10.8437838 1.26249788,10.750034 1.55416417,10.750034 L27.5541022,10.750034 C27.8457685,10.750034 28.0853509,10.8437838 28.2728505,11.0312833 C28.46035,11.2187829 28.5540998,11.4583653 28.5540998,11.7500316 L28.5540998,14.2500256 C28.5540998,14.5416919 28.46035,14.7812744 28.2728505,14.9687739 C28.0853509,15.1562735 27.8457685,15.2500232 27.5541022,15.2500232 L1.55416417,15.2500232 Z M1.55416417,25.2499994 C1.26249788,25.2499994 1.02291544,25.1562496 0.835415885,24.9687501 C0.647916332,24.7812505 0.554166555,24.5416681 0.554166555,24.2500018 L0.554166555,21.7500077 C0.554166555,21.4583415 0.647916332,21.218759 0.835415885,21.0312595 C1.02291544,20.8437599 1.26249788,20.7500101 1.55416417,20.7500101 L27.5541022,20.7500101 C27.8457685,20.7500101 28.0853509,20.8437599 28.2728505,21.0312595 C28.46035,21.218759 28.5540998,21.4583415 28.5540998,21.7500077 L28.5540998,24.2500018 C28.5540998,24.5416681 28.46035,24.7812505 28.2728505,24.9687501 C28.0853509,25.1562496 27.8457685,25.2499994 27.5541022,25.2499994 L1.55416417,25.2499994 Z"/>
</svg>

<svg xmlns="http://www.w3.org/2000/svg" width="29" height="26"><path fill-rule="evenodd" d="M1.554 5.25a.973.973 0 0 1-.719-.281.973.973 0 0 1-.28-.719v-2.5c0-.292.093-.531.28-.719a.973.973 0 0 1 .72-.28h26c.29 0 .53.093.718.28a.973.973 0 0 1 .281.72V4.25a.973.973 0 0 1-.281.719.973.973 0 0 1-.719.281h-26zm0 10a.973.973 0 0 1-.719-.281.973.973 0 0 1-.28-.719v-2.5c0-.292.093-.531.28-.719a.973.973 0 0 1 .72-.281h26c.29 0 .53.094.718.281a.973.973 0 0 1 .281.719v2.5a.973.973 0 0 1-.281.719.973.973 0 0 1-.719.281h-26zm0 10a.973.973 0 0 1-.719-.281.973.973 0 0 1-.28-.719v-2.5c0-.292.093-.531.28-.719a.973.973 0 0 1 .72-.281h26c.29 0 .53.094.718.281a.973.973 0 0 1 .281.719v2.5a.973.973 0 0 1-.281.719.973.973 0 0 1-.719.281h-26z"/></svg>
